X:1
T:Title
%%score { ( 1 3 ) | ( 2 4 5 ) }
L:1/8
M:4/4
K:C
V:1 treble nm="Grand Piano"
V:3 treble 
V:2 bass 
V:4 bass 
V:5 bass 
V:1
 z4[Q:1/4=100] [EGc]4 | [EGB]2 [CFA]2 [EGc]2 G2 | z2 B,2 E2 [Ge]2 | [Gd]2 [CEc]2 [FAc]2 [DGB]2 | %4
[M:2/4] [CGc]4 | [EGc]4 |[M:4/4] [EGB]2 [CFA]2 [EGc]2 G2 | z2 B,2 E2 [Ge]2 | %8
 [Gd]2 [Ec]2 [Ac]2 [GB]2 |[M:2/4] [Gc]4 | [EG]4 |[M:4/4] [^FA]2 [GB]2 [Gc]2 B2 | A4 z4 | %13
 E2 G2 [EG]2 ^F2 | G4 E4 | G2 [CA]2 [B,B]2 [Ec]2 | B4 z4 |[M:6/4] z4 D2 z6 | %18
[M:4/4][K:bass] [E,G,C]4 z4 |] %19
V:2
 z4 C,4 | E,2 F,2 C,2 [E,C]2 | A,2 z2 z4 | [G,B,]2 A,2 F,2 G,2 |[M:2/4] C,4 | C,4 | %6
[M:4/4] E,2 F,2 C,2 [E,C]2 | A,2 z2 z4 | [G,B,]2 [A,C]2 [F,F]2 [G,D]2 |[M:2/4] [C,C]4 | [E,B,]4 | %11
[M:4/4] [D,D]2 [G,D]2 [E,C]2[K:treble] [G,DG]2 | D2 z2[K:bass] z4 | %13
 [C,G,C]2 [E,G,B,]2 [C,C]2 [D,A,D]2 | [G,B,D]4 [C,G,C]4 | z4 z2 A,2- | A,2 z2 z4 |[M:6/4] z6 .B,6 | %18
[M:4/4] C,4 z4 |] %19
V:3
 x8 | x8 | F4 z4 | x8 |[M:2/4] x4 | x4 |[M:4/4] x8 | F4 z4 | x8 |[M:2/4] x4 | x4 |[M:4/4] x8 | %12
 z2 ^C2 F2 D2 | x8 | x8 | x8 | z2 ^G,2 [EA]2 [CG]2 | %17
[M:6/4] [F,A,F]2 [G,CE]2 [A,F]2- [A,F]2 [G,D]4 |[M:4/4][K:bass] x8 |] %19
V:4
 x8 | x8 | [D,D]4 [C,C]2 [C,C]2 | x8 |[M:2/4] x4 | x4 |[M:4/4] x8 | [D,D]4 [C,C]2 [C,C]2 | x8 | %9
[M:2/4] x4 | x4 |[M:4/4] x6[K:treble] x2 | [A,E]4[K:bass] [D,A,D]2 [D,F,A,]2 | x8 | x8 | %15
 [C,E,C]2 [A,,E,]2 [E,G,]2 A,,2 | [E,E]4 [A,,A,]2 [C,E,]2 |[M:6/4] D,2 .C,4 z4 B,2 |[M:4/4] x8 |] %19
V:5
 x8 | x8 | x8 | x8 |[M:2/4] x4 | x4 |[M:4/4] x8 | x8 | x8 |[M:2/4] x4 | x4 | %11
[M:4/4] x6[K:treble] x2 | x4[K:bass] x4 | x8 | x8 | x8 | x8 |[M:6/4] z4 F,,2- F,,2 G,,4 | %18
[M:4/4] x8 |] %19

